X: 7363
T: Cliffs Of Moher, The
R: jig
M: 6/8
K: Adorian
M: 7/8
|:a2 a2 bag|e2af ged|c2 c2 BAG|E2FG ABd|
a2 a2 bag|e2af ged|c2 [c2e2] BAG|E2FG A3:|
e2e2 dBA|e2e2 dBA|G2AB dBA|G2AB dBd|
e2e2 dBA|e2e2 dBA|G2AB dBA|E2FG A3|
e2fe dBA|e2fe dBA|G2AB dBA|G2AB dBd|
e2fe ded|c2ec BeB|G2AB dBA|E2FG A3||

